images/callout2.svg

<?xml version="1.0" encoding="UTF-8" standalone="no"?>
<svg width="90px" height="90px" viewBox="0 0 90 90" version="1.1" xmlns="http://www.w3.org/2000/svg" xmlns:xlink="http://www.w3.org/1999/xlink" xmlns:sketch="http://www.bohemiancoding.com/sketch/ns">
    <!-- Generator: Sketch 3.3.3 (12081) - http://www.bohemiancoding.com/sketch -->
    <title>callout2</title>
    <desc>Created with Sketch.</desc>
    <defs></defs>
    <g id="Page-1" stroke="none" stroke-width="1" fill="none" fill-rule="evenodd" sketch:type="MSPage">
        <g id="callout2" sketch:type="MSArtboardGroup" fill="#FFFFFF">
            <path d="M33.7122358,76.08775 C32.319055,76.08775 30.9685227,75.4438429 29.6974334,74.1735899 L6.79524754,51.2697316 C4.24554276,48.7200268 4.24470652,45.7931764 6.79524754,43.2417992 L12.8529915,37.1874002 C15.3909889,34.6460578 18.3404178,34.6452216 20.8817601,37.1874002 L33.9664537,50.2244279 L69.1321424,15.8029953 C71.6483975,13.285904 74.6070251,13.2741966 77.1500399,15.8147027 L83.2069476,21.869938 C85.7541437,24.4213152 85.7541437,27.3473293 83.2069476,29.8987066 L37.7119859,74.187806 C36.4567852,75.4446792 35.1062528,76.08775 33.7122358,76.08775 L33.7122358,76.08775 Z M16.8652852,38.3414155 C16.3150373,38.3414155 15.6953813,38.6826026 15.0222057,39.3574507 L8.96446176,45.4118497 C7.60389447,46.7740894 7.60305823,47.7391138 8.96446176,49.1005173 L31.8666476,72.0043756 C33.2155075,73.3523993 34.2089641,73.3523993 35.5561515,72.0043756 L81.050277,27.7152762 C82.3957919,26.3680888 82.3957919,25.4022282 81.0352247,24.0399884 L74.9791532,17.9855894 C73.6319658,16.6375658 72.6360004,16.6367295 71.2904855,17.9847532 L35.0293184,53.4790854 C34.4297323,54.0644555 33.4688891,54.0619468 32.8734841,53.4690505 L18.7125459,39.3607956 C18.0360253,38.6834388 17.4155331,38.3414155 16.8652852,38.3414155 L16.8652852,38.3414155 Z" id="Shape" sketch:type="MSShapeGroup"></path>
        </g>
    </g>
</svg>

<svg width="90" height="90" xmlns="http://www.w3.org/2000/svg"><g id="Page-1" stroke="none" stroke-width="1" fill="none" fill-rule="evenodd"><g id="callout2" fill="#FFF"><path d="M33.712 76.088c-1.393 0-2.743-.644-4.015-1.914L6.795 51.27c-2.55-2.55-2.55-5.477 0-8.028l6.058-6.055c2.538-2.54 5.487-2.542 8.029 0l13.084 13.037 35.166-34.421c2.516-2.517 5.475-2.529 8.018.012l6.057 6.055c2.547 2.551 2.547 5.477 0 8.029L37.712 74.188c-1.255 1.257-2.606 1.9-4 1.9zM16.865 38.34c-.55 0-1.17.342-1.843 1.016l-6.058 6.055c-1.36 1.362-1.36 2.327 0 3.689l22.903 22.903c1.349 1.348 2.342 1.348 3.69 0L81.05 27.715c1.346-1.347 1.346-2.313-.015-3.675l-6.056-6.054c-1.347-1.348-2.343-1.35-3.689-.001L35.03 53.479c-.6.585-1.561.583-2.157-.01l-14.16-14.108c-.677-.678-1.297-1.02-1.848-1.02z" id="Shape"/></g></g></svg>
